;FLAVOR:Marlin
;TIME:3521
;Filament used: 1.87489m
;Layer height: 0.2
;MINX:74.93
;MINY:69.006
;MINZ:0.2
;MAXX:145.07
;MAXY:150.994
;MAXZ:4
;Generated with Cura_SteamEngine 5.4.0
M82 ;absolute extrusion mode
; Ender 3 Custom Start G-code
G92 E0 ; Reset Extruder
G28 ; Home all axes
M104 S175 ; Start heating up the nozzle most of the way
M190 S60 ; Start heating the bed, wait until target temperature reached
M109 S200 ; Finish heating the nozzle
G1 Z2.0 F3000 ; Move Z Axis up little to prevent scratching of Heat Bed
G1 X0.1 Y20 Z0.3 F5000.0 ; Move to start position
G1 X0.1 Y200.0 Z0.3 F1500.0 E15 ; Draw the first line
G1 X0.4 Y200.0 Z0.3 F5000.0 ; Move to side a little
G1 X0.4 Y20 Z0.3 F1500.0 E30 ; Draw the second line
G92 E0 ; Reset Extruder
G1 Z2.0 F3000 ; Move Z Axis up little to prevent scratching of Heat Bed
G1 X5 Y20 Z0.3 F5000.0 ; Move over to prevent blob squish
G92 E0
G92 E0
G1 F1500 E-6.5
;LAYER_COUNT:20
;LAYER:0
M107
G0 F6000 X77.661 Y72.771 Z0.2
;TYPE:SKIRT
G1 F1500 E0
G1 F1200 X78.386 Y72.019 E0.03474
G1 X79.122 Y71.382 E0.06712
G1 X79.854 Y70.852 E0.09718
G1 X80.751 Y70.317 E0.13191
G1 X81.629 Y69.896 E0.1643
G1 X82.542 Y69.554 E0.19673
G1 X83.479 Y69.295 E0.22906
G1 X84.446 Y69.117 E0.26176
G1 X85.585 Y69.021 E0.29978
G1 X86.242 Y69.006 E0.32164
G1 X133.374 Y69.006 E1.88925
G1 X134.254 Y69.019 E1.91853
G1 X135.226 Y69.078 E1.95091
G1 X136.189 Y69.224 E1.98331
G1 X137.136 Y69.455 E2.01573
G1 X138.024 Y69.755 E2.04691
G1 X138.916 Y70.145 E2.07929
G1 X139.799 Y70.632 E2.11283
G1 X140.55 Y71.134 E2.14287
G1 X141.365 Y71.792 E2.17771
G1 X142.063 Y72.47 E2.21007
G1 X142.699 Y73.207 E2.24245
G1 X143.269 Y73.997 E2.27485
G1 X143.731 Y74.773 E2.30489
G1 X144.185 Y75.715 E2.33967
G1 X144.514 Y76.593 E2.37086
G1 X144.783 Y77.565 E2.4044
G1 X144.96 Y78.531 E2.43706
G1 X145.055 Y79.661 E2.47478
G1 X145.07 Y80.336 E2.49724
G1 X145.069 Y139.394 E4.46151
G1 X145.058 Y140.157 E4.48689
G1 X145.001 Y141.13 E4.51931
G1 X144.856 Y142.093 E4.5517
G1 X144.627 Y143.039 E4.58408
G1 X144.316 Y143.963 E4.6165
G1 X143.924 Y144.854 E4.64888
G1 X143.456 Y145.706 E4.68121
G1 X142.934 Y146.487 E4.71245
G1 X142.301 Y147.272 E4.74599
G1 X141.676 Y147.923 E4.77601
G1 X140.887 Y148.611 E4.81083
G1 X140.127 Y149.161 E4.84203
G1 X139.26 Y149.678 E4.8756
G1 X138.382 Y150.1 E4.908
G1 X137.471 Y150.442 E4.94037
G1 X136.532 Y150.703 E4.97278
G1 X135.566 Y150.881 E5.00545
G1 X134.415 Y150.979 E5.04388
G1 X133.74 Y150.994 E5.06633
G1 X86.494 Y150.993 E6.63774
G1 X85.761 Y150.982 E6.66212
G1 X84.789 Y150.925 E6.69451
G1 X83.826 Y150.779 E6.7269
G1 X82.88 Y150.55 E6.75927
G1 X81.956 Y150.238 E6.79171
G1 X81.066 Y149.846 E6.82406
G1 X80.243 Y149.395 E6.85527
G1 X79.404 Y148.834 E6.88884
G1 X78.7 Y148.268 E6.91888
G1 X77.947 Y147.543 E6.95365
G1 X77.31 Y146.807 E6.98603
G1 X76.78 Y146.076 E7.01606
G1 X76.244 Y145.179 E7.05081
G1 X75.822 Y144.301 E7.08321
G1 X75.48 Y143.389 E7.11561
G1 X75.22 Y142.451 E7.14798
G1 X75.042 Y141.482 E7.18075
G1 X74.944 Y140.303 E7.2201
G1 X74.93 Y139.652 E7.24176
G1 X74.931 Y80.531 E9.20813
G1 X74.942 Y79.831 E9.23141
G1 X75 Y78.858 E9.26383
G1 X75.146 Y77.895 E9.29623
G1 X75.376 Y76.949 E9.32861
G1 X75.689 Y76.026 E9.36103
G1 X76.081 Y75.136 E9.39337
G1 X76.551 Y74.283 E9.42576
G1 X77.094 Y73.475 E9.45814
G1 X77.661 Y72.771 E9.48821
G0 F6000 X77.973 Y73.022
G1 F1200 X78.648 Y72.321 E9.52058
G1 X79.357 Y71.706 E9.55179
G1 X80.089 Y71.176 E9.58185
G1 X80.925 Y70.677 E9.61423
G1 X81.77 Y70.27 E9.64543
G1 X82.649 Y69.939 E9.67667
G1 X83.552 Y69.688 E9.70784
G1 X84.48 Y69.516 E9.73923
G1 X85.619 Y69.42 E9.77725
G1 X86.251 Y69.406 E9.79827
G1 X133.368 Y69.406 E11.36539
G1 X134.23 Y69.418 E11.39407
G1 X135.167 Y69.474 E11.42529
G1 X136.095 Y69.613 E11.4565
G1 X137.008 Y69.834 E11.48774
G1 X137.864 Y70.122 E11.51778
G1 X138.756 Y70.512 E11.55016
G1 X139.577 Y70.965 E11.58134
G1 X140.328 Y71.467 E11.61139
G1 X141.087 Y72.079 E11.64382
G1 X141.761 Y72.732 E11.67503
G1 X142.375 Y73.441 E11.70623
G1 X142.925 Y74.202 E11.73746
G1 X143.387 Y74.978 E11.76749
G1 X143.81 Y75.855 E11.79988
G1 X144.139 Y76.733 E11.83106
G1 X144.39 Y77.638 E11.8623
G1 X144.561 Y78.565 E11.89365
G1 X144.656 Y79.695 E11.93137
G1 X144.67 Y80.336 E11.95269
G1 X144.669 Y139.389 E13.9168
G1 X144.659 Y140.134 E13.94159
G1 X144.605 Y141.071 E13.9728
G1 X144.467 Y142 E14.00404
G1 X144.248 Y142.912 E14.03524
G1 X143.95 Y143.802 E14.06645
G1 X143.573 Y144.662 E14.09768
G1 X143.123 Y145.484 E14.12885
G1 X142.601 Y146.265 E14.1601
G1 X142.012 Y146.995 E14.19129
G1 X141.387 Y147.646 E14.22131
G1 X140.652 Y148.287 E14.25375
G1 X139.892 Y148.837 E14.28495
G1 X139.086 Y149.318 E14.31617
G1 X138.241 Y149.726 E14.34738
G1 X137.363 Y150.057 E14.37859
G1 X136.459 Y150.31 E14.40981
G1 X135.532 Y150.482 E14.44117
G1 X134.381 Y150.58 E14.47959
G1 X133.74 Y150.594 E14.50091
G1 X86.5 Y150.593 E16.07212
G1 X85.784 Y150.583 E16.09594
G1 X84.848 Y150.529 E16.12712
G1 X83.919 Y150.39 E16.15836
G1 X83.007 Y150.171 E16.18956
G1 X82.117 Y149.872 E16.22079
G1 X81.258 Y149.495 E16.25199
G1 X80.435 Y149.044 E16.2832
G1 X79.655 Y148.522 E16.31442
G1 X78.951 Y147.956 E16.34446
G1 X78.249 Y147.281 E16.37685
G1 X77.634 Y146.572 E16.40807
G1 X77.104 Y145.841 E16.4381
G1 X76.604 Y145.005 E16.4705
G1 X76.196 Y144.16 E16.50171
G1 X75.865 Y143.282 E16.53292
G1 X75.613 Y142.378 E16.56413
G1 X75.441 Y141.449 E16.59556
G1 X75.343 Y140.27 E16.6349
G1 X75.33 Y139.652 E16.65546
G1 X75.331 Y80.537 E18.62164
G1 X75.341 Y79.854 E18.64436
G1 X75.396 Y78.917 E18.67557
G1 X75.535 Y77.989 E18.70678
G1 X75.755 Y77.077 E18.73799
G1 X76.055 Y76.187 E18.76923
G1 X76.432 Y75.328 E18.80043
G1 X76.883 Y74.506 E18.83161
G1 X77.406 Y73.726 E18.86285
G1 X77.973 Y73.022 E18.89291
G0 F6000 X78.285 Y73.273
G1 F1200 X78.911 Y72.623 E18.92293
G1 X79.592 Y72.03 E18.95296
G1 X80.324 Y71.5 E18.98302
G1 X81.099 Y71.037 E19.01304
G1 X81.912 Y70.644 E19.04308
G1 X82.757 Y70.324 E19.07313
G1 X83.626 Y70.081 E19.10314
G1 X84.514 Y69.915 E19.13319
G1 X85.653 Y69.819 E19.17121
G1 X86.26 Y69.806 E19.1914
G1 X133.363 Y69.806 E20.75805
G1 X134.207 Y69.817 E20.78613
G1 X135.109 Y69.87 E20.81618
G1 X136.002 Y70.002 E20.8462
G1 X136.88 Y70.213 E20.87624
G1 X137.736 Y70.501 E20.90628
G1 X138.563 Y70.863 E20.9363
G1 X139.355 Y71.298 E20.96635
G1 X140.106 Y71.8 E20.9964
G1 X140.809 Y72.367 E21.02644
G1 X141.459 Y72.994 E21.05648
G1 X142.051 Y73.676 E21.08651
G1 X142.581 Y74.407 E21.11655
G1 X143.043 Y75.183 E21.14658
G1 X143.436 Y75.996 E21.17662
G1 X143.754 Y76.841 E21.20665
G1 X143.997 Y77.711 E21.23669
G1 X144.162 Y78.599 E21.26673
G1 X144.257 Y79.729 E21.30445
G1 X144.27 Y80.336 E21.32464
G1 X144.269 Y139.384 E23.28859
G1 X144.26 Y140.111 E23.31277
G1 X144.209 Y141.013 E23.34282
G1 X144.078 Y141.907 E23.37287
G1 X143.869 Y142.785 E23.40289
G1 X143.583 Y143.642 E23.43294
G1 X143.222 Y144.47 E23.46298
G1 X142.79 Y145.262 E23.49298
G1 X142.289 Y146.014 E23.52304
G1 X141.723 Y146.718 E23.55308
G1 X141.098 Y147.369 E23.5831
G1 X140.417 Y147.963 E23.61315
G1 X139.686 Y148.494 E23.64321
G1 X138.912 Y148.958 E23.67322
G1 X138.099 Y149.352 E23.70327
G1 X137.255 Y149.672 E23.73329
G1 X136.385 Y149.917 E23.76335
G1 X135.498 Y150.083 E23.79337
G1 X134.347 Y150.181 E23.83179
G1 X133.74 Y150.194 E23.85198
G1 X86.505 Y150.193 E25.42302
G1 X85.807 Y150.184 E25.44624
G1 X84.906 Y150.133 E25.47626
G1 X84.012 Y150.001 E25.50631
G1 X83.134 Y149.792 E25.53633
G1 X82.277 Y149.505 E25.56639
G1 X81.45 Y149.144 E25.5964
G1 X80.657 Y148.711 E25.62645
G1 X79.906 Y148.21 E25.65648
G1 X79.202 Y147.644 E25.68652
G1 X78.551 Y147.018 E25.71656
G1 X77.958 Y146.337 E25.7466
G1 X77.428 Y145.606 E25.77663
G1 X76.964 Y144.831 E25.80667
G1 X76.57 Y144.018 E25.83672
G1 X76.25 Y143.174 E25.86674
G1 X76.006 Y142.304 E25.89679
G1 X75.84 Y141.416 E25.92684
G1 X75.743 Y140.261 E25.96539
G1 X75.73 Y139.652 E25.98565
G1 X75.731 Y80.542 E27.95166
G1 X75.74 Y79.877 E27.97378
G1 X75.792 Y78.975 E28.00383
G1 X75.924 Y78.082 E28.03385
G1 X76.134 Y77.204 E28.06388
G1 X76.421 Y76.347 E28.09394
G1 X76.783 Y75.52 E28.12397
G1 X77.216 Y74.728 E28.15399
G1 X77.718 Y73.977 E28.18403
G1 X78.285 Y73.273 E28.2141
G1 F1500 E21.7141
;MESH:part_top.stl
G0 F6000 X88.556 Y82.823
G0 X89.863 Y85.441
;TYPE:WALL-INNER
G1 F1500 E28.2141
G1 F1200 X89.046 Y85.1 E28.24354
G1 X88.867 Y84.984 E28.25064
G1 X88.724 Y84.777 E28.259
G1 X88.389 Y83.975 E28.28791
G1 X88.389 Y83.693 E28.29729
G1 X88.776 Y82.766 E28.3307
G1 X89.046 Y82.567 E28.34186
G1 X89.839 Y82.237 E28.37043
G1 X90.221 Y82.27 E28.38318
G1 X90.934 Y82.567 E28.40887
G1 X91.14 Y82.711 E28.41723
G1 X91.256 Y82.89 E28.42432
G1 X91.598 Y83.712 E28.45394
G1 X91.577 Y84.006 E28.46374
G1 X91.229 Y84.842 E28.49386
G1 X91.006 Y85.064 E28.50432
G1 X90.141 Y85.424 E28.53548
G1 X89.863 Y85.441 E28.54475
G1 F1500 E22.04475
G0 F6000 X89.825 Y85.534
G0 X90.222 Y85.593
G0 X98.551 Y85.592
G0 X99.044 Y110.978
G1 F1500 E28.54475
G1 F1200 X98.812 Y110.729 E28.55607
G1 X98.754 Y110.539 E28.56268
G1 X98.75 Y82.51 E29.49492
G1 X98.796 Y82.279 E29.50276
G1 X98.99 Y82.029 E29.51328
G1 X99.264 Y81.91 E29.52322
G1 X119.378 Y81.91 E30.19221
G1 X119.739 Y82.029 E30.20485
G1 X119.932 Y82.279 E30.21536
G1 X119.978 Y82.51 E30.22319
G1 X119.977 Y110.507 E31.15438
G1 X119.95 Y110.646 E31.15909
G1 X119.841 Y110.843 E31.16658
G1 X119.694 Y110.971 E31.17306
G1 X119.461 Y111.061 E31.18137
G1 X99.35 Y111.061 E31.85026
G1 X99.044 Y110.978 E31.86081
G1 F1500 E25.36081
G0 F6000 X104.445 Y111.241
G0 X104.445 Y112.859
G0 X104.906 Y113.211
G0 X104.906 Y120.065
G0 X104.445 Y120.484
G0 X104.478 Y120.31
G1 F1500 E31.86081
G1 F879.1 X98.421 Y120.309 E32.13579
G1 F1012.7 X98.097 Y120.101 E32.15097
G1 F1200 X97.966 Y119.949 E32.15764
G1 X97.886 Y119.727 E32.16549
G1 X97.885 Y113.56 E32.37061
G1 X97.925 Y113.41 E32.37577
G1 X98.08 Y113.19 E32.38472
G1 X98.279 Y113.073 E32.3924
G1 X98.48 Y113.039 E32.39918
G1 X104.478 Y113.039 E32.59867
G1 X104.802 Y113.133 E32.60989
G1 X104.951 Y113.269 E32.6166
G1 F1034.5 X105.142 Y113.639 E32.63267
G1 F905.7 X105.142 Y119.695 E32.89956
G1 F961.9 X104.938 Y120.037 E32.91608
G1 F1108.5 X104.743 Y120.175 E32.92468
G1 F1016.9 X104.478 Y120.31 E32.93635
G0 F6000 X104.445 Y120.484
G0 X105.407 Y119.318
G0 X106.308 Y120.498
G0 X106.277 Y120.309
G1 F946.7 X105.877 Y120.039 E32.9567
G1 F961.9 X105.672 Y119.695 E32.97331
G1 F905.7 X105.672 Y113.639 E33.2402
G1 F1034.5 X105.863 Y113.269 E33.25626
G1 F1200 X106.012 Y113.133 E33.26297
G1 X106.252 Y113.039 E33.27155
G1 X112.335 Y113.039 E33.47387
G1 X112.672 Y113.141 E33.48558
G1 X112.819 Y113.282 E33.49235
G1 F985.6 X113.023 Y113.639 E33.509
G1 F833.3 X113.022 Y119.697 E33.79915
G1 F914.3 X112.727 Y120.113 E33.82141
G1 F944.9 X112.335 Y120.31 E33.83994
G1 F879.1 X106.277 Y120.309 E34.11498
G0 F6000 X106.308 Y120.498
G0 X105.996 Y121.095
G0 X105.254 Y127.645
G0 X104.928 Y127.942
G1 F1108.5 X104.719 Y128.074 E34.12388
G1 F1200 X104.478 Y128.124 E34.13206
G1 X98.427 Y128.122 E34.33332
G1 X98.125 Y128.009 E34.34404
G1 X97.984 Y127.863 E34.3508
G1 X97.88 Y127.626 E34.3594
G1 X97.88 Y121.451 E34.56478
G1 X97.966 Y121.215 E34.57314
G1 X98.097 Y121.062 E34.57984
G1 F1012.7 X98.421 Y120.854 E34.59501
G1 F879.1 X104.478 Y120.854 E34.87
G1 F944.9 X104.861 Y121.046 E34.8881
G1 F1100.9 X105.013 Y121.253 E34.89741
G1 F1034.5 X105.142 Y121.526 E34.90906
G1 F905.7 X105.142 Y127.582 E35.17594
G1 F961.9 X104.928 Y127.942 E35.19332
G0 F6000 X105.254 Y127.645
G0 X105.407 Y127.205
G0 X105.908 Y127.952
G0 X112.763 Y127.952
G0 X113.215 Y127.565
G0 X113.022 Y127.584
G1 F900.6 X112.768 Y127.949 E35.21303
G1 F1081.1 X112.585 Y128.07 E35.22113
G1 F1200 X112.335 Y128.124 E35.22964
G1 X106.283 Y128.122 E35.43093
G1 X106.096 Y128.075 E35.43734
G1 F1108.5 X105.886 Y127.942 E35.44629
G1 F961.9 X105.672 Y127.582 E35.46367
G1 F905.7 X105.672 Y121.526 E35.73055
G1 F967.7 X105.855 Y121.138 E35.74824
G1 F948.6 X106.277 Y120.854 E35.76965
G1 F879.1 X112.335 Y120.854 E36.04468
G1 F1016.9 X112.611 Y120.992 E36.05679
G1 F1083.5 X112.804 Y121.135 E36.06564
G1 F905.7 X113.023 Y121.526 E36.08539
G1 F833.3 X113.022 Y127.584 E36.37553
G0 F6000 X113.597 Y127.584
G1 F833.3 X113.597 Y121.526 E36.66568
G1 F874.3 X113.833 Y121.103 E36.68779
G1 F895.5 X114.225 Y120.854 E36.70849
G1 F879.1 X120.282 Y120.854 E36.98348
G1 F1016.9 X120.636 Y121.04 E36.99917
G1 F1200 X120.777 Y121.186 E37.00592
G1 X120.876 Y121.435 E37.01483
G1 X120.882 Y127.653 E37.22165
G1 X120.756 Y127.893 E37.23066
G1 X120.608 Y128.029 E37.23735
G1 X120.282 Y128.124 E37.24864
G1 X114.231 Y128.122 E37.4499
G1 X114.034 Y128.07 E37.45667
G1 X113.878 Y127.967 E37.46289
G1 F981.6 X113.597 Y127.584 E37.48221
G0 F6000 X113.405 Y127.566
G0 X113.856 Y121.098
G0 X114.258 Y120.498
G0 X114.225 Y120.309
G1 F939.3 X113.874 Y120.086 E37.49988
G1 F912.5 X113.597 Y119.697 E37.52076
G1 F833.3 X113.597 Y113.639 E37.81091
G1 F985.6 X113.801 Y113.282 E37.82756
G1 F1200 X113.947 Y113.141 E37.83431
G1 X114.2 Y113.039 E37.84338
G1 X120.282 Y113.039 E38.04567
G1 X120.597 Y113.128 E38.05656
G1 X120.809 Y113.35 E38.06677
G1 X120.878 Y113.562 E38.07418
G1 X120.876 Y119.728 E38.27926
G1 X120.777 Y119.978 E38.28821
G1 X120.636 Y120.123 E38.29493
G1 F1016.9 X120.282 Y120.31 E38.31065
G1 F879.1 X114.225 Y120.309 E38.58564
G1 F1500 E32.08564
G0 F6000 X114.258 Y120.498
G0 X113.856 Y121.098
G0 X113.856 Y127.952
G0 X114.216 Y128.303
G0 X114.216 Y128.875
G0 X113.856 Y129.226
G0 X113.404 Y135.695
G0 X113.597 Y135.713
G1 F1500 E38.58564
G1 F833.3 X113.597 Y129.654 E38.87583
G1 F905.7 X113.823 Y129.247 E38.89635
G1 F1083.5 X114.034 Y129.108 E38.90565
G1 F1200 X114.231 Y129.056 E38.91243
G1 X120.282 Y129.054 E39.11369
G1 X120.608 Y129.149 E39.12498
G1 X120.756 Y129.285 E39.13167
G1 X120.882 Y129.524 E39.14065
G1 X120.882 Y135.749 E39.3477
G1 X120.812 Y135.936 E39.35434
G1 X120.696 Y136.088 E39.3607
G1 X120.513 Y136.208 E39.36797
G1 X120.359 Y136.253 E39.37331
G1 X114.284 Y136.253 E39.57537
G1 X114.027 Y136.196 E39.58412
G1 X113.871 Y136.09 E39.5904
G1 F981.6 X113.597 Y135.713 E39.60935
G0 F6000 X113.022 Y135.713
G1 F981.6 X112.748 Y136.09 E39.62829
G1 F1200 X112.592 Y136.196 E39.63457
G1 X112.414 Y136.253 E39.64078
G1 X106.336 Y136.253 E39.84294
G1 X106.09 Y136.201 E39.8513
G1 F1108.5 X105.884 Y136.067 E39.86015
G1 F961.9 X105.672 Y135.711 E39.87734
G1 F905.7 X105.672 Y129.654 E40.14427
G1 F1034.5 X105.815 Y129.355 E40.15706
G1 F1200 X105.941 Y129.201 E40.16368
G1 X106.096 Y129.103 E40.16978
G1 X106.283 Y129.056 E40.17619
G1 X112.335 Y129.054 E40.37748
G1 X112.585 Y129.108 E40.38599
G1 F1083.5 X112.796 Y129.248 E40.39531
G1 F905.7 X113.023 Y129.654 E40.41581
G1 F833.3 X113.022 Y135.713 E40.70601
G0 F6000 X113.215 Y135.694
G0 X112.763 Y136.081
G0 X105.908 Y136.081
G0 X105.407 Y135.334
G0 X105.256 Y135.768
G0 X104.93 Y136.067
G1 F1108.5 X104.724 Y136.201 E40.71486
G1 F1200 X104.556 Y136.253 E40.7207
G1 X98.48 Y136.253 E40.92279
G1 X98.275 Y136.218 E40.92971
G1 X98.104 Y136.122 E40.93623
G1 X97.984 Y135.993 E40.94209
G1 X97.884 Y135.731 E40.95142
G1 X97.881 Y129.607 E41.1551
G1 X97.933 Y129.405 E41.16204
G1 X98.125 Y129.169 E41.17216
G1 X98.427 Y129.056 E41.18289
G1 X104.478 Y129.054 E41.38414
G1 X104.719 Y129.104 E41.39233
G1 X104.873 Y129.201 E41.39838
G1 X104.999 Y129.355 E41.405
G1 F1034.5 X105.142 Y129.654 E41.41779
G1 F905.7 X105.142 Y135.711 E41.68472
G1 F961.9 X104.93 Y136.067 E41.70191
G1 F1500 E35.20191
G0 F6000 X105.256 Y135.768
G0 X97.705 Y135.753
G0 X91.544 Y136.281
G0 X89.956 Y137.58
G1 F1500 E41.70191
G1 F1200 X89.674 Y137.58 E41.71129
G1 X88.872 Y137.245 E41.7402
G1 X88.699 Y137.136 E41.747
G1 X88.549 Y136.922 E41.75569
G1 X88.217 Y136.128 E41.78431
G1 X88.252 Y135.747 E41.79704
G1 X88.549 Y135.036 E41.82267
G1 X88.692 Y134.829 E41.83104
G1 X88.871 Y134.713 E41.83813
G1 X89.689 Y134.372 E41.86761
G1 X89.993 Y134.393 E41.87774
G1 X90.831 Y134.749 E41.90802
G1 X91.052 Y134.967 E41.91835
G1 X91.405 Y135.811 E41.94878
G1 X91.424 Y136.006 E41.95529
G1 X91.378 Y136.21 E41.96225
G1 X91.081 Y136.923 E41.98794
G1 X90.965 Y137.102 E41.99503
G1 X90.758 Y137.245 E42.0034
G1 X89.956 Y137.58 E42.03231
G1 F1500 E35.53231
