;FLAVOR:Marlin
;TIME:1938
;Filament used: 0.960616m
;Layer height: 0.2
;MINX:76.61
;MINY:76.744
;MINZ:0.2
;MAXX:143.39
;MAXY:143.256
;MAXZ:4.2
;Generated with Cura_SteamEngine 5.4.0
M82 ;absolute extrusion mode
; Ender 3 Custom Start G-code
G92 E0 ; Reset Extruder
G28 ; Home all axes
M104 S175 ; Start heating up the nozzle most of the way
M190 S60 ; Start heating the bed, wait until target temperature reached
M109 S200 ; Finish heating the nozzle
G1 Z2.0 F3000 ; Move Z Axis up little to prevent scratching of Heat Bed
G1 X0.1 Y20 Z0.3 F5000.0 ; Move to start position
G1 X0.1 Y200.0 Z0.3 F1500.0 E15 ; Draw the first line
G1 X0.4 Y200.0 Z0.3 F5000.0 ; Move to side a little
G1 X0.4 Y20 Z0.3 F1500.0 E30 ; Draw the second line
G92 E0 ; Reset Extruder
G1 Z2.0 F3000 ; Move Z Axis up little to prevent scratching of Heat Bed
G1 X5 Y20 Z0.3 F5000.0 ; Move over to prevent blob squish
G92 E0
G92 E0
G1 F1500 E-6.5
;LAYER_COUNT:21
;LAYER:0
M107
G0 F6000 X80.066 Y79.757 Z0.2
;TYPE:SKIRT
G1 F1500 E0
G1 F1200 X80.802 Y79.12 E0.03237
G1 X81.534 Y78.59 E0.06243
G1 X82.431 Y78.055 E0.09717
G1 X83.309 Y77.634 E0.12956
G1 X84.222 Y77.292 E0.16198
G1 X85.159 Y77.033 E0.19432
G1 X86.126 Y76.855 E0.22702
G1 X87.265 Y76.759 E0.26504
G1 X87.922 Y76.744 E0.2869
G1 X131.694 Y76.744 E1.74276
G1 X132.574 Y76.757 E1.77203
G1 X133.546 Y76.816 E1.80442
G1 X134.509 Y76.962 E1.83681
G1 X135.456 Y77.193 E1.86923
G1 X136.344 Y77.493 E1.90041
G1 X137.236 Y77.883 E1.93279
G1 X138.119 Y78.37 E1.96633
G1 X138.87 Y78.872 E1.99637
G1 X139.685 Y79.53 E2.03121
G1 X140.383 Y80.208 E2.06358
G1 X141.019 Y80.945 E2.09596
G1 X141.589 Y81.735 E2.12836
G1 X142.051 Y82.511 E2.15839
G1 X142.505 Y83.453 E2.19317
G1 X142.834 Y84.331 E2.22436
G1 X143.103 Y85.303 E2.2579
G1 X143.28 Y86.269 E2.29057
G1 X143.375 Y87.399 E2.32828
G1 X143.39 Y88.074 E2.35074
G1 X143.389 Y131.656 E3.80028
G1 X143.378 Y132.419 E3.82566
G1 X143.321 Y133.392 E3.85808
G1 X143.176 Y134.355 E3.89047
G1 X142.947 Y135.301 E3.92284
G1 X142.636 Y136.225 E3.95527
G1 X142.244 Y137.116 E3.98765
G1 X141.776 Y137.968 E4.01998
G1 X141.254 Y138.749 E4.05122
G1 X140.621 Y139.534 E4.08476
G1 X139.996 Y140.185 E4.11478
G1 X139.207 Y140.873 E4.1496
G1 X138.447 Y141.423 E4.1808
G1 X137.58 Y141.94 E4.21437
G1 X136.702 Y142.362 E4.24677
G1 X135.791 Y142.704 E4.27914
G1 X134.852 Y142.965 E4.31155
G1 X133.886 Y143.143 E4.34422
G1 X132.735 Y143.241 E4.38264
G1 X132.06 Y143.256 E4.4051
G1 X88.174 Y143.255 E5.86476
G1 X87.441 Y143.244 E5.88914
G1 X86.469 Y143.187 E5.92152
G1 X85.506 Y143.041 E5.95392
G1 X84.56 Y142.812 E5.98629
G1 X83.636 Y142.5 E6.01873
G1 X82.746 Y142.108 E6.05107
G1 X81.923 Y141.657 E6.08229
G1 X81.084 Y141.096 E6.11586
G1 X80.38 Y140.53 E6.1459
G1 X79.627 Y139.805 E6.18067
G1 X78.99 Y139.069 E6.21304
G1 X78.46 Y138.338 E6.24307
G1 X77.924 Y137.441 E6.27783
G1 X77.502 Y136.563 E6.31023
G1 X77.16 Y135.651 E6.34262
G1 X76.9 Y134.713 E6.375
G1 X76.722 Y133.744 E6.40777
G1 X76.624 Y132.565 E6.44712
G1 X76.61 Y131.914 E6.46877
G1 X76.611 Y88.269 E7.92041
G1 X76.622 Y87.569 E7.9437
G1 X76.68 Y86.596 E7.97612
G1 X76.826 Y85.633 E8.00851
G1 X77.056 Y84.687 E8.04089
G1 X77.369 Y83.764 E8.07331
G1 X77.761 Y82.874 E8.10565
G1 X78.231 Y82.021 E8.13805
G1 X78.774 Y81.213 E8.17042
G1 X79.341 Y80.509 E8.20049
G1 X80.066 Y79.757 E8.23523
G0 F6000 X80.328 Y80.059
G1 F1200 X81.037 Y79.444 E8.26645
G1 X81.769 Y78.914 E8.29651
G1 X82.605 Y78.415 E8.32889
G1 X83.45 Y78.008 E8.36008
G1 X84.329 Y77.677 E8.39132
G1 X85.232 Y77.426 E8.4225
G1 X86.16 Y77.254 E8.45389
G1 X87.299 Y77.158 E8.49191
G1 X87.931 Y77.144 E8.51293
G1 X131.688 Y77.144 E9.9683
G1 X132.55 Y77.156 E9.99697
G1 X133.487 Y77.212 E10.02819
G1 X134.415 Y77.351 E10.0594
G1 X135.328 Y77.572 E10.09064
G1 X136.184 Y77.86 E10.12068
G1 X137.076 Y78.25 E10.15306
G1 X137.897 Y78.703 E10.18425
G1 X138.648 Y79.205 E10.21429
G1 X139.407 Y79.817 E10.24672
G1 X140.081 Y80.47 E10.27793
G1 X140.695 Y81.179 E10.30913
G1 X141.245 Y81.94 E10.34036
G1 X141.707 Y82.716 E10.3704
G1 X142.13 Y83.593 E10.40278
G1 X142.459 Y84.471 E10.43397
G1 X142.71 Y85.376 E10.4652
G1 X142.881 Y86.303 E10.49656
G1 X142.976 Y87.433 E10.53427
G1 X142.99 Y88.074 E10.5556
G1 X142.989 Y131.651 E12.00497
G1 X142.979 Y132.396 E12.02975
G1 X142.925 Y133.333 E12.06097
G1 X142.787 Y134.262 E12.09221
G1 X142.568 Y135.174 E12.1234
G1 X142.27 Y136.064 E12.15462
G1 X141.893 Y136.924 E12.18585
G1 X141.443 Y137.746 E12.21702
G1 X140.921 Y138.527 E12.24827
G1 X140.332 Y139.257 E12.27946
G1 X139.707 Y139.908 E12.30948
G1 X138.972 Y140.549 E12.34192
G1 X138.212 Y141.099 E12.37312
G1 X137.406 Y141.58 E12.40434
G1 X136.561 Y141.988 E12.43555
G1 X135.683 Y142.319 E12.46675
G1 X134.779 Y142.572 E12.49798
G1 X133.852 Y142.744 E12.52934
G1 X132.701 Y142.842 E12.56776
G1 X132.06 Y142.856 E12.58908
G1 X88.18 Y142.855 E14.04854
G1 X87.464 Y142.845 E14.07235
G1 X86.528 Y142.791 E14.10354
G1 X85.599 Y142.652 E14.13478
G1 X84.687 Y142.433 E14.16597
G1 X83.797 Y142.134 E14.1972
G1 X82.938 Y141.757 E14.2284
G1 X82.115 Y141.306 E14.25962
G1 X81.335 Y140.784 E14.29083
G1 X80.631 Y140.218 E14.32088
G1 X79.929 Y139.543 E14.35327
G1 X79.314 Y138.834 E14.38448
G1 X78.784 Y138.103 E14.41452
G1 X78.284 Y137.267 E14.44692
G1 X77.876 Y136.422 E14.47812
G1 X77.545 Y135.544 E14.50933
G1 X77.293 Y134.64 E14.54055
G1 X77.121 Y133.711 E14.57197
G1 X77.023 Y132.532 E14.61132
G1 X77.01 Y131.914 E14.63188
G1 X77.011 Y88.275 E16.08332
G1 X77.021 Y87.592 E16.10604
G1 X77.076 Y86.655 E16.13726
G1 X77.215 Y85.727 E16.16847
G1 X77.435 Y84.815 E16.19967
G1 X77.735 Y83.925 E16.23091
G1 X78.112 Y83.066 E16.26211
G1 X78.563 Y82.244 E16.29329
G1 X79.086 Y81.464 E16.32453
G1 X79.653 Y80.76 E16.35459
G1 X80.328 Y80.059 E16.38696
G0 F6000 X80.591 Y80.361
G1 F1200 X81.272 Y79.768 E16.41699
G1 X82.004 Y79.238 E16.44705
G1 X82.779 Y78.775 E16.47708
G1 X83.592 Y78.382 E16.50711
G1 X84.437 Y78.062 E16.53716
G1 X85.306 Y77.819 E16.56718
G1 X86.194 Y77.653 E16.59722
G1 X87.333 Y77.557 E16.63524
G1 X87.94 Y77.544 E16.65543
G1 X131.683 Y77.544 E18.11033
G1 X132.527 Y77.555 E18.13841
G1 X133.429 Y77.608 E18.16846
G1 X134.322 Y77.74 E18.19848
G1 X135.2 Y77.951 E18.22852
G1 X136.056 Y78.239 E18.25855
G1 X136.883 Y78.601 E18.28858
G1 X137.675 Y79.036 E18.31863
G1 X138.426 Y79.538 E18.34868
G1 X139.129 Y80.105 E18.37872
G1 X139.779 Y80.732 E18.40876
G1 X140.371 Y81.414 E18.43879
G1 X140.901 Y82.145 E18.46882
G1 X141.363 Y82.921 E18.49886
G1 X141.756 Y83.734 E18.5289
G1 X142.074 Y84.579 E18.55893
G1 X142.317 Y85.449 E18.58897
G1 X142.482 Y86.337 E18.61901
G1 X142.577 Y87.467 E18.65673
G1 X142.59 Y88.074 E18.67692
G1 X142.589 Y131.646 E20.12613
G1 X142.58 Y132.373 E20.15031
G1 X142.529 Y133.275 E20.18036
G1 X142.398 Y134.169 E20.21041
G1 X142.189 Y135.047 E20.24043
G1 X141.903 Y135.904 E20.27048
G1 X141.542 Y136.732 E20.30052
G1 X141.11 Y137.524 E20.33053
G1 X140.609 Y138.276 E20.36058
G1 X140.043 Y138.98 E20.39063
G1 X139.418 Y139.631 E20.42064
G1 X138.737 Y140.225 E20.4507
G1 X138.006 Y140.756 E20.48075
G1 X137.232 Y141.22 E20.51077
G1 X136.419 Y141.614 E20.54081
G1 X135.575 Y141.934 E20.57084
G1 X134.705 Y142.179 E20.6009
G1 X133.818 Y142.345 E20.63091
G1 X132.667 Y142.443 E20.66933
G1 X132.06 Y142.456 E20.68953
G1 X88.185 Y142.455 E22.14881
G1 X87.487 Y142.446 E22.17203
G1 X86.586 Y142.395 E22.20205
G1 X85.692 Y142.263 E22.2321
G1 X84.814 Y142.054 E22.26212
G1 X83.957 Y141.767 E22.29218
G1 X83.13 Y141.406 E22.32219
G1 X82.337 Y140.973 E22.35225
G1 X81.586 Y140.472 E22.38227
G1 X80.882 Y139.906 E22.41232
G1 X80.231 Y139.28 E22.44236
G1 X79.638 Y138.599 E22.47239
G1 X79.108 Y137.868 E22.50242
G1 X78.644 Y137.093 E22.53246
G1 X78.25 Y136.28 E22.56251
G1 X77.93 Y135.436 E22.59253
G1 X77.686 Y134.566 E22.62259
G1 X77.52 Y133.678 E22.65263
G1 X77.423 Y132.523 E22.69118
G1 X77.41 Y131.914 E22.71144
G1 X77.411 Y88.28 E24.16272
G1 X77.42 Y87.615 E24.18484
G1 X77.472 Y86.713 E24.21489
G1 X77.604 Y85.82 E24.24491
G1 X77.814 Y84.942 E24.27494
G1 X78.101 Y84.085 E24.305
G1 X78.463 Y83.258 E24.33502
G1 X78.896 Y82.466 E24.36504
G1 X79.398 Y81.715 E24.39509
G1 X79.965 Y81.011 E24.42515
G1 X80.591 Y80.361 E24.45517
G1 F1500 E17.95517
G0 F6000 X122.984 Y109.146
G1 F1500 E24.45517
G1 F1200 X123.683 Y108.41 E24.48893
G1 X124.473 Y108.187 E24.51623
G1 X124.565 Y108.132 E24.5198
G1 X124.697 Y107.991 E24.52622
G1 X125.657 Y107.722 E24.55938
G1 X126.616 Y107.992 E24.59252
G1 X127.314 Y108.727 E24.62623
G1 X127.58 Y109.643 E24.65796
G1 X127.311 Y110.606 E24.69121
G1 X126.617 Y111.3 E24.72385
G1 X125.838 Y111.52 E24.75078
G1 X125.75 Y111.571 E24.75416
G1 X125.603 Y111.719 E24.7611
G1 X124.64 Y111.988 E24.79435
G1 X123.723 Y111.719 E24.82614
G1 X122.986 Y110.982 E24.86081
G1 X122.716 Y110.063 E24.89266
G1 X122.984 Y109.146 E24.92444
G0 F6000 X123.342 Y109.35
G1 F1200 X123.897 Y108.765 E24.95126
G1 X124.582 Y108.572 E24.97493
G1 X124.856 Y108.406 E24.98558
G1 X124.912 Y108.346 E24.98831
G1 X125.656 Y108.138 E25.01401
G1 X126.403 Y108.348 E25.03982
G1 X126.957 Y108.931 E25.06657
G1 X127.164 Y109.645 E25.09129
G1 X126.954 Y110.397 E25.11726
G1 X126.408 Y110.943 E25.14294
G1 X125.729 Y111.135 E25.16641
G1 X125.467 Y111.289 E25.17652
G1 X125.394 Y111.362 E25.17995
G1 X124.644 Y111.572 E25.20586
G1 X123.934 Y111.364 E25.23047
G1 X123.341 Y110.771 E25.25836
G1 X123.133 Y110.063 E25.2829
G1 X123.342 Y109.35 E25.30761
G0 F6000 X123.698 Y109.556
G1 F1200 X124.112 Y109.12 E25.32761
G1 X124.69 Y108.957 E25.34759
G1 X124.948 Y108.843 E25.35697
G1 X125.119 Y108.703 E25.36432
G1 X125.656 Y108.553 E25.38286
G1 X126.187 Y108.703 E25.40121
G1 X126.6 Y109.137 E25.42114
G1 X126.748 Y109.648 E25.43883
G1 X126.598 Y110.187 E25.45744
G1 X126.198 Y110.587 E25.47626
G1 X125.62 Y110.75 E25.49623
G1 X125.362 Y110.864 E25.50561
G1 X125.185 Y111.006 E25.51316
G1 X124.647 Y111.156 E25.53174
G1 X124.145 Y111.009 E25.54913
G1 X123.695 Y110.559 E25.5703
G1 X123.549 Y110.064 E25.58747
G1 X123.698 Y109.556 E25.60507
G0 F6000 X124.055 Y109.761
G1 F1200 X124.326 Y109.475 E25.61818
G1 X124.799 Y109.342 E25.63452
G1 X125.107 Y109.214 E25.64561
G1 X125.29 Y109.071 E25.65334
G1 X125.656 Y108.968 E25.66599
G1 X125.974 Y109.058 E25.67698
G1 X126.243 Y109.341 E25.68996
G1 X126.333 Y109.65 E25.70067
G1 X126.241 Y109.978 E25.712
G1 X125.989 Y110.23 E25.72385
G1 X125.512 Y110.365 E25.74034
G1 X125.203 Y110.493 E25.75146
G1 X125.011 Y110.639 E25.75949
G1 X124.649 Y110.74 E25.77199
G1 X124.357 Y110.655 E25.7821
G1 X124.05 Y110.348 E25.79654
G1 X123.966 Y110.063 E25.80642
G1 X124.055 Y109.761 E25.8169
G0 F6000 X124.411 Y109.966
G1 F1200 X124.539 Y109.831 E25.82308
G1 X124.908 Y109.727 E25.83584
G1 X125.259 Y109.587 E25.8484
G1 X125.496 Y109.428 E25.8579
G1 X125.655 Y109.384 E25.86338
G1 X125.76 Y109.413 E25.86701
G1 X125.885 Y109.544 E25.87303
G1 X125.916 Y109.652 E25.87677
G1 X125.883 Y109.77 E25.88084
G1 X125.779 Y109.874 E25.88573
G1 X125.403 Y109.98 E25.89873
G1 X125.051 Y110.12 E25.91133
G1 X124.853 Y110.267 E25.91953
G1 X124.65 Y110.324 E25.92654
G1 X124.568 Y110.3 E25.92938
G1 X124.406 Y110.138 E25.937
G1 X124.383 Y110.061 E25.93968
G1 X124.411 Y109.966 E25.94297
G1 F1500 E19.44297
;MESH:socket_test.stl
G0 F6000 X122.256 Y109.966
G0 X121.495 Y113.8
;TYPE:WALL-INNER
G1 F1500 E25.94297
G1 F1200 X121.308 Y113.73 E25.94961
G1 X121.156 Y113.614 E25.95597
G1 X121.037 Y113.431 E25.96323
G1 X120.991 Y113.277 E25.96858
G1 X120.991 Y106.463 E26.19521
G1 X121.037 Y106.232 E26.20304
G1 X121.156 Y106.049 E26.2103
G1 X121.308 Y105.933 E26.21666
G1 X121.497 Y105.863 E26.22337
G1 X129.22 Y105.863 E26.48024
G1 X129.458 Y105.982 E26.48909
G1 X129.627 Y106.18 E26.49774
G1 X129.698 Y106.463 E26.50745
G1 X129.698 Y113.278 E26.73412
G1 X129.628 Y113.483 E26.74132
G1 X129.458 Y113.681 E26.75
G1 X129.22 Y113.8 E26.75885
G1 X121.495 Y113.8 E27.01579
G1 F1500 E20.51579
G0 F6000 X121.222 Y113.889
G0 X118.606 Y113.887
G0 X118.15 Y119.288
G1 F1500 E27.01579
G1 F1200 X117.922 Y119.379 E27.02395
G1 X90.304 Y119.378 E27.94253
G1 X90.08 Y119.317 E27.95025
G1 X89.852 Y119.119 E27.96029
G1 X89.747 Y118.864 E27.96947
G1 X89.747 Y98.865 E28.63464
G1 X89.856 Y98.518 E28.64673
G1 X90.092 Y98.321 E28.65696
G1 X90.268 Y98.265 E28.6631
G1 X117.83 Y98.265 E29.57982
G1 X118.063 Y98.311 E29.58772
G1 X118.246 Y98.432 E29.59501
G1 X118.362 Y98.585 E29.6014
G1 X118.429 Y98.817 E29.60943
G1 X118.426 Y118.852 E30.2758
G1 X118.345 Y119.088 E30.2841
G1 X118.15 Y119.288 E30.29339
G1 F1500 E23.79339
G0 F6000 X122.525 Y125.653
G0 X123.828 Y129.511
G1 F1500 E30.29339
G1 F1200 X122.67 Y129.03 E30.33509
G1 X122.463 Y128.886 E30.34348
G1 X122.346 Y128.706 E30.35062
G1 X121.865 Y127.548 E30.39233
G1 X121.865 Y127.265 E30.40174
G1 X122.378 Y126.036 E30.44603
G1 X122.58 Y125.821 E30.45584
G1 X123.81 Y125.315 E30.50008
G1 X124.149 Y125.32 E30.51136
G1 X125.334 Y125.81 E30.55401
G1 X125.558 Y126.026 E30.56436
G1 X126.079 Y127.274 E30.60934
G1 X126.074 Y127.549 E30.61849
G1 X125.594 Y128.706 E30.66015
G1 X125.477 Y128.886 E30.66729
G1 X125.27 Y129.03 E30.67568
G1 X124.112 Y129.511 E30.71738
G1 X123.828 Y129.511 E30.72683
G1 F1500 E24.22683
G0 F6000 X123.79 Y129.604
G0 X122.567 Y128.81
G0 X121.985 Y127.406
G0 X122.219 Y125.945
G0 X88.03 Y125.945
G0 X88.371 Y96.058
G0 X88.446 Y95.255
G0 X131.79 Y131.656
G1 F1500 E30.72683
G1 F1200 X131.79 Y88.344 E32.16739
G1 X88.211 Y88.345 E33.61683
G1 X88.211 Y89.01 E33.63895
G1 F1121.5 X88.239 Y90.193 E33.68106
G1 F1043.5 X88.242 Y95.351 E33.87835
G1 F1111.1 X88.21 Y96.059 E33.90381
G1 F1200 X88.211 Y131.655 E35.08774
G1 X131.79 Y131.656 E36.53718
G1 F1500 E30.03718
G0 F6000 X88.446 Y95.255
G0 X88.404 Y95.709
G0 X88.41 Y129.63
G0 X103.067 Y129.522
G0 X103.422 Y129.63
G1 F1500 E36.53718
G1 F1200 X103.223 Y129.428 E36.54661
G1 X103.145 Y129.217 E36.5541
G1 X103.137 Y122.624 E36.77338
G1 X103.227 Y122.306 E36.78437
G1 X103.346 Y122.168 E36.79043
G1 X103.662 Y122.024 E36.80198
G1 X115.704 Y122.024 E37.2025
G1 X115.918 Y122.063 E37.20974
G1 X116.094 Y122.167 E37.21654
G1 X116.268 Y122.417 E37.22667
G1 X116.305 Y122.624 E37.23366
G1 X116.304 Y129.241 E37.45374
G1 X116.185 Y129.479 E37.46259
G1 X115.987 Y129.648 E37.47125
G1 X115.785 Y129.718 E37.47836
G1 X103.737 Y129.718 E37.87908
G1 X103.422 Y129.63 E37.88996
G1 F1500 E31.38996
G0 F6000 X102.939 Y128.716
G0 X99.582 Y128.216
G0 X98.876 Y128.717
G1 F1500 E37.88996
G1 F1200 X90.172 Y128.717 E38.17945
G1 X89.933 Y128.6 E38.1883
G1 X89.761 Y128.402 E38.19703
G1 X89.69 Y128.198 E38.20421
G1 X89.69 Y123.882 E38.34776
G1 X89.799 Y123.535 E38.35986
G1 X90.034 Y123.338 E38.37006
G1 X90.26 Y123.282 E38.3778
G1 X98.926 Y123.282 E38.66604
G1 X99.222 Y123.453 E38.67741
G1 X99.328 Y123.594 E38.68327
G1 X99.401 Y123.882 E38.69315
G1 X99.401 Y128.194 E38.83657
G1 X99.308 Y128.439 E38.84529
G1 X99.189 Y128.575 E38.8513
G1 X98.876 Y128.717 E38.86273
G1 F1500 E32.36273
G0 F6000 X99.229 Y128.545
G0 X99.229 Y123.454
G0 X94.428 Y123.102
G0 X94.428 Y96.002
G0 X94.428 Y95.802
G1 F1500 E38.86273
G1 F1200 X89.325 Y95.802 E39.03246
G1 X88.964 Y95.682 E39.04511
G1 F1111.1 X88.701 Y95.311 E39.06145
G1 F1043.5 X88.697 Y90.193 E39.2572
G1 F1121.5 X89.112 Y89.631 E39.28207
G1 F1200 X89.25 Y89.593 E39.28683
G1 X94.353 Y89.593 E39.45655
G1 X94.677 Y89.687 E39.46778
G1 X94.876 Y89.898 E39.47742
G1 X94.953 Y90.121 E39.48527
G1 X94.953 Y95.3 E39.65752
G1 X94.85 Y95.54 E39.66621
G1 X94.74 Y95.662 E39.67167
G1 X94.428 Y95.802 E39.68305
G1 F1500 E33.18305
G0 F6000 X95.153 Y95.331
G0 X96.933 Y95.331
G0 X120.301 Y95.919
G1 F1500 E39.68305
G1 F1200 X120.129 Y96.055 E39.69034
G1 X119.927 Y96.123 E39.69743
G1 X97.333 Y96.123 E40.44891
G1 X97.054 Y96.055 E40.45846
G1 X96.857 Y95.89 E40.46701
G1 X96.776 Y95.747 E40.47247
G1 X96.733 Y95.523 E40.48006
G1 X96.733 Y89.866 E40.66821
G1 X96.767 Y89.738 E40.67262
G1 X96.956 Y89.472 E40.68347
G1 X97.247 Y89.34 E40.6941
G1 X119.849 Y89.34 E41.44584
G1 X120.209 Y89.46 E41.45846
G1 X120.403 Y89.709 E41.46896
G1 X120.449 Y89.94 E41.4768
G1 X120.45 Y95.602 E41.66512
G1 X120.301 Y95.919 E41.67677
G0 F6000 X120.012 Y95.64
;TYPE:WALL-OUTER
G1 F1200 X119.883 Y95.721 E41.68183
G1 X97.333 Y95.723 E42.43185
